X: 1241
T: The Boyne Hunt
M:C|
L:1/8
R:Reel
B:O'Neill's 1241
N:Collected by F. O'Neill
Z:Transcribed by Trish O'Neil
K:D
~(BA)FA DAFA|DAFA|BEEB|~(BA)FA DAFA|ABde fddB|
~(BA)FA DAFA|DAFA|BEEB|~(BA)FA DAFA|ABde fddg||
f>a{b}(3a^ga bgaf|dfaf gfeg|f>a{b}(3a^ga bgaf|ABde fd (3dcd|
f>a{b}(3a^ga bgaf|dfaf gfeg|fgef dedB|ABde fddg||
fdad bdad|fdad ceeg|fdad bdad|ABde fddg|
fdad bdad|fdad ceeg|fgef dedB|ABde fddB||


